Hatter-kde/actions/22/vcs-update-cvs-cervisia.svg

<?xml version="1.0" encoding="UTF-8"?>
<svg viewBox="0 0 22 22" xmlns="http://www.w3.org/2000/svg">
 <defs id="defs3051">
  <style id="current-color-scheme" type="text/css">.ColorScheme-Text {
        color:#363636;
      }</style>
 </defs>
 <path class="ColorScheme-Text" d="m11 3a8 3 0 0 0-8 3v10a8 3 0 0 0 8 3 8 3 0 0 0 3.5625-0.31641l-0.84375-0.84375a7 2 0 0 1-2.7188 0.16016 7 2 0 0 1-7-2v-3.5488a8 3 0 0 0 7 1.5488 8 3 0 0 0 2.4375-0.14453l0.2625-0.26953 0.21016 0.21406a8 3 0 0 0 1.0898-0.2v-0.6-0.36133a7 2 0 0 1-4 0.36133 7 2 0 0 1-7-2v-3.5488a8 3 0 0 0 7 1.5488 8 3 0 0 0 7-1.5547v3.5547a7 2 0 0 1-0.94531 1h0.94531v0.44531 2.4547l1-1v-7.9a8 3 0 0 0-8-3zm0 1a7 2 0 0 1 7 2 7 2 0 0 1-7 2 7 2 0 0 1-7-2 7 2 0 0 1 7-2zm5 9v4.3l-2.3-2.3-0.7 0.7 3.3 3.3 0.2 0.20703 0.2-0.20703 3.3-3.3-0.7-0.7-2.3 2.3v-4.3h-1z" fill="currentColor"/>
</svg>

<svg xmlns="http://www.w3.org/2000/svg" viewBox="0 0 22 22">
  <defs id="defs3051">
    <style type="text/css" id="current-color-scheme">
      .ColorScheme-Text {
        color:#363636;
      }
      </style>
  </defs>
  <path
     style="fill:currentColor;fill-opacity:1;stroke:none" 
     d="M 11 3 A 8 3 0 0 0 3 6 L 3 16 A 8 3 0 0 0 11 19 A 8 3 0 0 0 14.5625 18.683594 L 13.71875 17.839844 A 7 2 0 0 1 11 18 A 7 2 0 0 1 4 16 L 4 12.451172 A 8 3 0 0 0 11 14 A 8 3 0 0 0 13.4375 13.855469 L 13.7 13.585938 L 13.910156 13.8 A 8 3 0 0 0 15 13.6 L 15 13 L 15 12.638672 A 7 2 0 0 1 11 13 A 7 2 0 0 1 4 11 L 4 7.4511719 A 8 3 0 0 0 11 9 A 8 3 0 0 0 18 7.4453125 L 18 11 A 7 2 0 0 1 17.054688 12 L 18 12 L 18 12.445312 L 18 14.9 L 19 13.9 L 19 6 A 8 3 0 0 0 11 3 z M 11 4 A 7 2 0 0 1 18 6 A 7 2 0 0 1 11 8 A 7 2 0 0 1 4 6 A 7 2 0 0 1 11 4 z M 16 13 L 16 17.3 L 13.7 15 L 13 15.7 L 16.3 19 L 16.5 19.207031 L 16.7 19 L 20 15.7 L 19.3 15 L 17 17.3 L 17 13 L 16 13 z "
     class="ColorScheme-Text" />
</svg>
